X: 5249
T: Broken Pledge, The
R: reel
M: 4/4
K: Ddorian
A|:dcAG ADDd|cAGF EDCE|D2 (3E^FG Acdc|(3ABc Gc Adfe|
dcAG ^FG (3A_B=B c|cAGF EDCE|D2 (3EFG Addc|AAGE EDD ^c:|
dcAG Acde|fAdf ec (3A_B=B|cAGE GAcd|ec ~c2 eage|
dcAG (3ABc de|fAdf ecAG|F2FE FG (3A_B=B|1 cAGE EDDA:|2 cAGE EDCE||

